src/assets/svg/icon.svg

<svg width="16" height="16" viewBox="0 0 16 16" fill="none" xmlns="http://www.w3.org/2000/svg">
<path d="M8.28383 10.896C9.29983 10.896 9.93983 10.536 10.5238 9.944L10.1078 9.504C9.57183 10.016 9.06783 10.312 8.29983 10.312C7.06783 10.312 6.13183 9.296 6.13183 8C6.13183 6.696 7.05983 5.688 8.29983 5.688C9.05983 5.688 9.58783 6.008 10.0598 6.456L10.4758 6.008C9.91583 5.48 9.32383 5.104 8.30783 5.104C6.65983 5.104 5.47583 6.416 5.47583 8C5.47583 9.624 6.66783 10.896 8.28383 10.896Z" fill="white"/>
<rect x="0.333333" y="0.333333" width="15.3333" height="15.3333" rx="7.66667" stroke="white" stroke-width="0.666667"/>
</svg>

<svg xmlns="http://www.w3.org/2000/svg" width="16" height="16" fill="none"><path fill="#fff" d="M8.284 10.896c1.016 0 1.656-.36 2.24-.952l-.416-.44c-.536.512-1.04.808-1.808.808-1.232 0-2.168-1.016-2.168-2.312 0-1.304.928-2.312 2.168-2.312.76 0 1.288.32 1.76.768l.416-.448c-.56-.528-1.152-.904-2.168-.904C6.66 5.104 5.476 6.416 5.476 8c0 1.624 1.192 2.896 2.808 2.896Z"/><rect width="15.333" height="15.333" x=".333" y=".333" stroke="#fff" stroke-width=".667" rx="7.667"/></svg>
